packages/ui-icons/svg/Solid/printer.svg

<svg viewBox="0 0 1920 1920" xmlns="http://www.w3.org/2000/svg">
    <path d="M1440 1120c0-44.16-35.84-80-80-80s-80 35.84-80 80c0 44.24 35.84 80 80 80s80-35.76 80-80Zm-880 640h800v-320H560v320Zm1200-880v720h-240v320H400v-320H160V880c0-132.32 107.68-240 240-240h160v160h800V640h160c132.32 0 240 107.68 240 240ZM560 480H400V0h1120v480h-160V160H560v320Z" fill-rule="evenodd"/>
</svg>

<svg viewBox="0 0 1920 1920" version="1.1" xmlns="http://www.w3.org/2000/svg">
    <path d="M1440,1120 C1440,1075.84 1404.16,1040 1360,1040 C1315.84,1040 1280,1075.84 1280,1120 C1280,1164.24 1315.84,1200 1360,1200 C1404.16,1200 1440,1164.24 1440,1120 L1440,1120 Z M560,1760 L1360,1760 L1360,1440 L560,1440 L560,1760 Z M1760,880 L1760,1600 L1520,1600 L1520,1920 L400,1920 L400,1600 L160,1600 L160,880 C160,747.68 267.68,640 400,640 L560,640 L560,800 L1360,800 L1360,640 L1520,640 C1652.32,640 1760,747.68 1760,880 L1760,880 Z M560,480 L400,480 L400,0 L1520,0 L1520,480 L1360,480 L1360,160 L560,160 L560,480 Z" stroke="none" stroke-width="1" fill-rule="evenodd"/>
</svg>
